X: 107
T:Muiñeira Picada
M:6/8
L:1/8
Q:200
C:Emilio Fernández
S:Rep: Emilio Fernández
R:Muiñeira
K:C
CEG | c2d cBA | G "~"E2 DEF | GEG FED | G "~"E2 CEG | c2d cBA | G "~"E2
DEF | 
GEG FED |1 C2 "F."G :|2 |: C4 E{C}E | GE{C}E CE{C}E | FD{C}D B, D{C}D |
GD{C}D B, D{C}D | GE{C}E CE{C}E |
GE{C}E C E{C}E | FD{C}D B,D{C}D |GDG FED :||: C4 E{C}E | GE{C}E GE{C}E |
 G2D B,D{C}D | GD{C}D GD{C}D|
G2 EC E{C}E |GE{C}E GE{C}E | G2D B,D{C}D | GDG FED :| C2 "F."G 

